assets/bank-tab/Asset/Bank.svg

<svg width="24" height="24" viewBox="0 0 24 24" fill="none" xmlns="http://www.w3.org/2000/svg">
<path d="M10.8535 1.80267C11.542 1.32099 12.458 1.32099 13.1465 1.80267L21.5732 7.7011C21.8405 7.88819 21.9999 8.19423 22 8.52044V9.49993C22 10.0522 21.5523 10.4999 21 10.4999H19.75C19.6119 10.4999 19.5 10.6119 19.5 10.7499V17.7499C19.5 17.888 19.6119 17.9999 19.75 17.9999H20.5C21.3284 17.9999 21.9999 18.6716 22 19.4999V20.4999C22 21.3283 21.3284 21.9999 20.5 21.9999H3.5C2.6716 21.9999 2.00004 21.3283 2 20.4999V19.4999C2.00007 18.6716 2.67161 17.9999 3.5 17.9999H4.25C4.38807 17.9999 4.5 17.888 4.5 17.7499V10.7499C4.5 10.6119 4.38807 10.4999 4.25 10.4999H3C2.44774 10.4999 2.00004 10.0522 2 9.49993V8.52044C2.00008 8.19423 2.15952 7.88819 2.42676 7.7011L10.8535 1.80267ZM8 10.4999C7.7239 10.4999 7.50007 10.7238 7.5 10.9999V16.4999C7.5 16.7761 7.72386 16.9999 8 16.9999H10C10.2761 16.9999 10.5 16.7761 10.5 16.4999V10.9999C10.4999 10.7238 10.2761 10.4999 10 10.4999H8ZM14 10.4999C13.7239 10.4999 13.5001 10.7238 13.5 10.9999V16.4999C13.5 16.7761 13.7239 16.9999 14 16.9999H16C16.2761 16.9999 16.5 16.7761 16.5 16.4999V10.9999C16.4999 10.7238 16.2761 10.4999 16 10.4999H14Z" fill="#83A2C2"/>
</svg>

<svg xmlns="http://www.w3.org/2000/svg" width="24" height="24" fill="none" viewBox="0 0 24 24"><path fill="#83a2c2" d="M10.854 1.803a2 2 0 0 1 2.293 0L21.572 7.7a1 1 0 0 1 .427.82v.98a1 1 0 0 1-1 1h-1.25a.25.25 0 0 0-.25.25v7c0 .138.112.25.25.25h.75a1.5 1.5 0 0 1 1.5 1.5v1a1.5 1.5 0 0 1-1.5 1.5h-17A1.5 1.5 0 0 1 2 20.5v-1A1.5 1.5 0 0 1 3.5 18h.75a.25.25 0 0 0 .25-.25v-7a.25.25 0 0 0-.25-.25H3a1 1 0 0 1-1-1v-.98a1 1 0 0 1 .427-.819zM8 10.5a.5.5 0 0 0-.5.5v5.5a.5.5 0 0 0 .5.5h2a.5.5 0 0 0 .5-.5V11a.5.5 0 0 0-.5-.5zm6 0a.5.5 0 0 0-.5.5v5.5a.5.5 0 0 0 .5.5h2a.5.5 0 0 0 .5-.5V11a.5.5 0 0 0-.5-.5z"/></svg>
